src/assets/icons/general/telegram.svg

<svg width="24" height="24" viewBox="0 0 24 24" fill="currentColor" xmlns="http://www.w3.org/2000/svg">
<path d="M12 0C5.37097 0 0 5.37097 0 12C0 18.629 5.37097 24 12 24C18.629 24 24 18.629 24 12C24 5.37097 18.629 0 12 0ZM17.5645 8.1629C17.3855 10.0597 16.6016 14.6661 16.2048 16.7903C16.0355 17.6903 15.7065 17.9903 15.3871 18.0194C14.6903 18.0823 14.1629 17.5597 13.4855 17.1145C12.4306 16.4226 11.8306 15.9919 10.8097 15.3145C9.62419 14.5355 10.3935 14.1048 11.0661 13.4032C11.2452 13.2194 14.3129 10.4274 14.371 10.1758C14.3806 10.1419 14.3855 10.0258 14.3129 9.9629C14.2403 9.9 14.1387 9.92419 14.0661 9.93871C13.9597 9.9629 12.271 11.0758 9.00484 13.2823C8.52581 13.6113 8.09032 13.771 7.70323 13.7613C7.27258 13.7516 6.45 13.5194 5.83548 13.321C5.08548 13.079 4.48548 12.9484 4.53871 12.5323C4.56774 12.3145 4.8629 12.0968 5.42903 11.8694C8.92742 10.3452 11.2597 9.33871 12.4258 8.85484C15.7597 7.47097 16.4516 7.22903 16.9016 7.21935C17.0032 7.21935 17.221 7.24355 17.3661 7.35968C17.4629 7.44194 17.521 7.55806 17.5355 7.68387C17.5597 7.83871 17.5645 7.99839 17.5548 8.15806L17.5645 8.1629Z"/>
</svg>

<svg xmlns="http://www.w3.org/2000/svg" width="24" height="24" fill="currentColor" viewBox="0 0 24 24"><path d="M12 0C5.371 0 0 5.371 0 12s5.371 12 12 12 12-5.371 12-12S18.629 0 12 0m5.564 8.163c-.178 1.897-.962 6.503-1.36 8.627-.169.9-.498 1.2-.817 1.23-.697.062-1.224-.46-1.902-.905-1.054-.692-1.654-1.123-2.675-1.8-1.186-.78-.417-1.21.256-1.912.18-.184 3.247-2.976 3.305-3.227.01-.034.014-.15-.058-.213s-.174-.039-.247-.024q-.16.035-5.061 3.343-.72.494-1.302.48c-.43-.01-1.253-.243-1.868-.441-.75-.242-1.35-.373-1.296-.789.029-.217.324-.435.89-.663q5.247-2.287 6.997-3.014c3.334-1.384 4.026-1.626 4.476-1.636.101 0 .319.025.464.14a.5.5 0 0 1 .17.325q.034.233.019.474z"/></svg>
